X:1
T:Title
%%score { 1 | 2 } 3 4
L:1/8
Q:1/4=216
M:none
K:F
V:1 treble nm="Soprano I" snm="S"
V:2 treble 
V:3 treble nm="Alto" snm="A"
V:4 treble-8 nm="Tenor" snm="T"
V:1
"^Adoramus te, Christe" z8 f8- | f4 f4 d8 | c4 c4 (A6 B2 | c8) c8- | %4
w: A-|* do- ra-|mus te Chri\- *|* ste,|
 c4 f4 e4"^Gregor Aichinger\n(1561-1628)" c4 | d6 d2 c8 | B8 A4 c4 |[M:4/2] c4 c4 F4 A4- | %8
w: * et be- ne-|di- ci- mus|ti- bi, et|be- ne- di- ci\-|
 A4 G4 (d6 c2 | B2 A2 G4) c8 | F8 F4 G4 | A4 B4 c4 d4 | c8 d8- | d8 B8 | B4 c4 d4 e4 | f8 f8 | %16
w: * mus ti\- *|* * * bi,|qui- a per|san- ctam cru- cem|tu- am,|* qui-|a per san- ctam|cru- cem|
 f16 | e8 z8 | f12 e4 | d4 c4 (B6 A2 | G8) F8 | z4[Q:1/4=212] c8[Q:1/4=208] B4 | %22
w: tu-|am,|re- de-|mi- sti mun\- *|* dum,|re- de-|
[Q:1/4=203] A8[Q:1/4=197] B8 |[Q:1/4=192] (A8[Q:1/4=186] G8) |[Q:1/4=184] !fermata!A16 |] %25
w: mi- sti|mun\- *|dum.|
V:2
 c12 c4 | d8 B8 | G4 (A6 G2 F4- | F2 ED E4) F8 | z4 F4 G4 A4 | B6 B2 A4 (A4- | A2 GF G4) A8 | %7
w: A- do-|ra- mus|te Chri\- * *|* * * * ste,|et be- ne-|di- ci- mus ti\-|* * * * bi,|
[M:4/2] z16 | z16 | z8 F8 | F4 G4 A4 B4 | c12 B4 | (A4 G4) F8 | B8 B4 c4 | d4 e4 (f8- | %15
w: ||qui-|a per san- ctam|cru- cem|tu\- * am,|qui- a per|san- ctam cru\-|
 f4 e2 d2 c4 d4- | d2 c2 c8) =B4 | c8 A8 | z8 f8- | f4 e4 d8 | c8 (B2 A2 A2 GF | G8) F4 f4- | %22
w: |* * * cem|tu- am,|re\-|* de- mi-|sti mun\- * * * *|* dum, re\-|
 f4 e4 d4 d4 | c16 | !fermata!c16 |] %25
w: * de- mi- sti|mun-|dum.|
V:3
 A12 A4 | B8 F8 | E8 (F8 | G8) A8- | A8 z8 | z8 z4 C4 | D4 E4 F6 F2 |[M:4/2] G4 (A6 G2 F4- | %8
w: A- do-|ra- mus|te Chri\-|* ste||et|be- ne- di- ci-|mus ti\- * *|
 F2 E2 E2 DC D2 E2 F4- | F4 E4) A8 | z8 F8 | F4 G4 A4 B4 | c4 c4 (B2 A2 A2 GF) | G8 F8 | z8 F8 | %15
w: |* * bi,|qui-|a per san- ctam|cru- cem tu\- * * * *|* am,|qui-|
 F4 G4 A4 B4 | A4 G4 F8 | G4 c8 B4 | A4 G4 F8 | F8 z4 F4- | F4 E4 D4 D4 | C8 F4 D4- | %22
w: a per san- ctam|cru- cem tu-|am, re- de-|mi- sti mun-|dum, re\-|* de- mi- sti|mun- dum, re\-|
 D2 D2 E4 F4 (G4- | G2 F2 F8 E4) | !fermata!F16 |] %25
w: * de- mi- sti mun\-||dum.|
V:4
 f12 f4 | B16 | (c8 d8) | c8 F8- | F8 c8 | z16 | z8 z4 f4 |[M:4/2][K:treble-8] e4 c4 d6 d2 | %8
w: A- do-|ra-|mus *|te Chri\-|* ste,||et|be- ne- di- ci-|
 c8 (B6 A2 | G8) F4 f4 | d4 e4 f8 | f8 f8- | f4 e4 d8 | G8 B8 | B12 c4 | d4 e4 f8- | f4 e4 d8 | %17
w: mus ti\- *|* bi, qui-|a per san-|ctam cru\-|* cem tu-|am, qui-|a per|san- ctam cru\-|* cem tu-|
 c8 f8- | f4 e4 d4 c4 | B16 | c8 z4 f4- | f4 e4 d8- | d4 c4 (B4 G4 | A6 B2 c8) | !fermata!F16 |] %25
w: am, re\-|* de- mi- sti|mun-|dum, re\-|* de- mi\-|* sti mun\- *||dum.|

